Papirus/48x48/apps/preferences-desktop-locale.svg

<svg xmlns="http://www.w3.org/2000/svg" width="48" height="48" version="1">
 <defs>
  <clipPath id="clipPath4421" clipPathUnits="userSpaceOnUse">
   <path fill="#ebebeb" d="m142 252c-1.108 0-2 0.892-2 2v24c0 1.108 0.892 2 2 2h26v-28h-26z"/>
  </clipPath>
 </defs>
 <path opacity=".5" d="m152 268 16 12v-24l-16-16z" clip-path="url(#clipPath4421)" transform="translate(-136,-236)"/>
 <path fill="#e4e4e4" d="m6 16c-1.108 0-2 0.892-2 2v24c0 1.108 0.892 2 2 2h26v-28h-26z"/>
 <path fill="#fff" opacity=".2" d="m4 18.5v-0.5c0-1.108 0.892-2 2-2h26v0.5h-26c-1.108 0-2 0.892-2 2z"/>
 <path opacity=".2" d="m15.403 22.554c0.60029 0.4156 1.1544 0.92353 1.6623 1.5238l-0.90043 1.1082c-0.55412-0.69263-1.1313-1.2698-1.7316-1.7316l0.96969-0.90043m0 4.3636c0.55411 0.4156 1.0851 0.87736 1.5931 1.3853l-0.90043 1.1775c-0.509-0.646-1.063-1.2-1.663-1.662l0.96969-0.90044m0.27706 4.7792 1.1082 0.76191c-0.55412 1.8932-1.3622 3.7172-2.4242 5.4719l-1.178-0.901c1.062-1.7085 1.8932-3.4863 2.4935-5.3333m3.2554-9.697 1.316 0.27706c-0.0924 0.46178-0.23089 0.90045-0.41559 1.316h5.4026v1.2468h-5.9567l-0.62337 1.039c-0.18472 0.36942-0.48486 0.76192-0.90044 1.1775l-0.832-0.969c0.87734-1.062 1.5469-2.4242 2.0087-4.0866m-0.34632 4.2944h6.3723c-0.00002 1.4315-0.0231 2.7706-0.0693 4.0173h0.90043v1.2468h-0.96969c-0.0924 0.9697-0.16163 1.9163-0.20779 2.8398h1.039v1.1775h-1.1775c-0.18472 1.6162-0.83119 2.4242-1.9394 2.4242-0.27707 0-0.66956-0.0462-1.1775-0.13852l-0.20779-1.1775c0.60028 0.0923 1.062 0.13853 1.3853 0.13853 0.32322 0 0.53101-0.41559 0.62338-1.2468h-5.4026c0.1847-1.2468 0.34631-2.5858 0.48485-4.0173h-0.9697v-1.2468h1.1082c0.0923-1.2929 0.16161-2.632 0.20779-4.0173m1.039 4.0173h3.948c0.0462-0.96969 0.0693-1.9163 0.0693-2.8398h-3.8095c-0.0462 1.0159-0.11545 1.9625-0.20779 2.8398m1.7316-2.4935c0.50793 0.32324 0.96969 0.69265 1.3853 1.1082l-0.83117 1.039c-0.4156-0.46175-0.87736-0.87733-1.3853-1.2468l0.83116-0.90043m1.9394 6.5801c0.0923-0.96969 0.1616-1.9163 0.20779-2.8398h-3.948c-0.0924 1.0159-0.2078 1.9625-0.34632 2.8398h4.0866m-2.1472-2.4935c0.5541 0.32323 1.062 0.69264 1.5238 1.1082l-0.90043 1.039c-0.46177-0.50793-0.94662-0.9466-1.4546-1.316l0.83117-0.83117m-7.2727-8.2424v10.874h-1.2468v-1.1775h-1.1775v1.8009h-1.2468v-11.498h3.671m-2.4242 8.5195h1.1775v-7.342h-1.1775v7.342"/>
 <path opacity=".2" d="m4 42v1c0 1.108 0.892 2 2 2h26v-1h-26c-1.108 0-2-0.892-2-2z"/>
 <path fill="#a3a3a3" d="m16 32 16 12v-24l-16-16z"/>
 <path fill="#2095f2" d="m16 4v28h26c1.108 0 2-0.892 2-2v-24c0-1.108-0.892-2-2-2h-26z"/>
 <path fill="#fff" d="m28.221 19.374 0.39264-1.4724c0.44172-1.5951 0.8589-3.4601 1.2515-5.1534h0.0982c0.41718 1.6687 0.8589 3.5583 1.3006 5.1534l0.36809 1.4724h-3.411m5.128 6.626h3.8282l-5.0061-16h-4.3436l-5.0061 16h3.681l0.9816-3.8037h4.8834l0.982 3.804"/>
 <path fill="#fff" opacity=".2" d="m44 6.5c0-1.108-0.892-2-2-2h-26v-0.5h26c1.108 0 2 0.892 2 2v0.5z"/>
 <path opacity=".2" d="m44 30c0 1.108-0.892 2-2 2h-26v1h26c1.108 0 2-0.892 2-2v-1z"/>
</svg>

<svg xmlns="http://www.w3.org/2000/svg" width="48" height="48" version="1">
 <path style="opacity:0.5" d="M 16,32 32,44 V 20 L 16,4 Z"/>
 <path style="fill:#e4e4e4" d="M 6,16 C 4.892,16 4,16.892 4,18 V 42 C 4,43.108 4.892,44 6,44 H 32 V 16 Z"/>
 <path style="opacity:0.2" d="M 15.403,22.554 C 16.003,22.97 16.557,23.478 17.065,24.078 L 16.165,25.186 C 15.611,24.493 15.034,23.916 14.433,23.454 L 15.403,22.554 M 15.403,26.918 C 15.957,27.333 16.488,27.795 16.996,28.303 L 16.096,29.48 C 15.587,28.834 15.033,28.28 14.433,27.818 L 15.402,26.918 M 15.679,31.697 16.788,32.459 C 16.233,34.352 15.425,36.176 14.363,37.931 L 13.185,37.03 C 14.247,35.321 15.079,33.544 15.679,31.697 M 18.934,22 20.25,22.277 C 20.158,22.738 20.019,23.177 19.835,23.593 H 25.237 V 24.839 H 19.281 L 18.657,25.878 C 18.472,26.248 18.172,26.64 17.757,27.056 L 16.925,26.087 C 17.802,25.025 18.472,23.663 18.933,22 M 18.587,26.295 H 24.959 C 24.959,27.726 24.936,29.065 24.89,30.312 H 25.791 V 31.559 H 24.821 C 24.728,32.529 24.659,33.475 24.613,34.399 H 25.652 V 35.576 H 24.475 C 24.29,37.192 23.643,38 22.535,38 22.258,38 21.866,37.954 21.358,37.862 L 21.15,36.684 C 21.75,36.777 22.212,36.823 22.535,36.823 22.858,36.823 23.066,36.407 23.159,35.576 H 17.756 C 17.941,34.329 18.102,32.99 18.241,31.559 H 17.271 V 30.312 H 18.379 C 18.472,29.019 18.541,27.68 18.587,26.295 M 19.626,30.312 H 23.574 C 23.62,29.342 23.643,28.396 23.643,27.472 H 19.834 C 19.788,28.488 19.718,29.435 19.626,30.312 M 21.358,27.819 C 21.866,28.142 22.327,28.511 22.743,28.927 L 21.912,29.966 C 21.496,29.504 21.035,29.088 20.527,28.719 L 21.358,27.818 M 23.297,34.399 C 23.389,33.429 23.459,32.482 23.505,31.559 H 19.557 C 19.465,32.575 19.349,33.521 19.211,34.399 H 23.297 M 21.15,31.905 C 21.704,32.228 22.212,32.598 22.674,33.013 L 21.773,34.052 C 21.312,33.544 20.827,33.106 20.319,32.736 L 21.15,31.905 M 13.877,23.663 V 34.537 H 12.63 V 33.359 H 11.453 V 35.16 H 10.206 V 23.662 H 13.877 M 11.453,32.182 H 12.63 V 24.84 H 11.453 V 32.182"/>
 <path style="opacity:0.2" d="M 4,42 V 43 C 4,44.108 4.892,45 6,45 H 32 V 44 H 6 C 4.892,44 4,43.108 4,42 Z"/>
 <path style="fill:#a3a3a3" d="M 16,32 32,44 V 20 L 16,4 Z"/>
 <path style="opacity:0.2;fill:#ffffff" d="M 6,16 C 4.892,16 4,16.892 4,18 V 19 C 4,17.892 4.892,17 6,17 H 32 V 16 Z"/>
 <path style="fill:#2095f2" d="M 16,4 V 32 H 42 C 43.108,32 44,31.108 44,30 V 6 C 44,4.892 43.108,4 42,4 Z"/>
 <path style="fill:#ffffff" d="M 28.221,19.374 28.614,17.902 C 29.055,16.306 29.473,14.441 29.865,12.748 H 29.963 C 30.381,14.417 30.822,16.306 31.264,17.902 L 31.632,19.374 H 28.221 M 33.349,26 H 37.177 L 32.171,10 H 27.828 L 22.821,26 H 26.502 L 27.484,22.196 H 32.367 L 33.349,26"/>
 <path style="opacity:0.2" d="M 44,30 C 44,31.108 43.108,32 42,32 H 16 V 33 H 42 C 43.108,33 44,32.108 44,31 Z"/>
 <path style="opacity:0.2;fill:#ffffff" d="M 16,4 V 5 H 42 C 43.108,5 44,5.892 44,7 V 6 C 44,4.892 43.108,4 42,4 Z"/>
</svg>
